svg/icons/android.svg

<?xml version="1.0" encoding="UTF-8"?>
<svg width="32px" height="38px" viewBox="0 0 32 38" version="1.1" xmlns="http://www.w3.org/2000/svg" xmlns:xlink="http://www.w3.org/1999/xlink">
    <!-- Generator: Sketch 43 (38999) - http://www.bohemiancoding.com/sketch -->
    <title>android</title>
    <desc>Created with Sketch.</desc>
    <defs></defs>
    <g id="Page-1" stroke="none" stroke-width="1" fill="none" fill-rule="evenodd">
        <g id="01NO_tengo_webcam" transform="translate(-178.000000, -802.000000)" fill="#E3E3E3">
            <g id="android" transform="translate(178.000000, 802.000000)">
                <path d="M26.02968,28.9333086 C26.02968,29.7840157 25.33912,30.4743755 24.48144,30.4743755 L6.54912,30.4743755 C5.69304,30.4743755 5,29.7840952 5,28.9333086 L5,13.012819 C9.70056,12.995727 20.6664,12.995727 26.02968,13.012819 L26.02968,28.9333086 Z" id="Shape"></path>
                <path d="M12.13424,4.68640167 C12.22272,4.85899163 12.15552,5.07474895 11.97944,5.1642636 L11.97944,5.1642636 C11.80496,5.25218828 11.58792,5.1830251 11.49944,5.00964017 L9.23272,0.619447699 C9.14264,0.444472803 9.21464,0.232769874 9.3892,0.142460251 L9.3892,0.142460251 C9.56368,0.0528661088 9.77912,0.122108787 9.8692,0.296368201 L12.13432,4.68656067 L12.13424,4.68640167 Z" id="Shape"></path>
                <path d="M20.39008,4.87123431 C20.29176,5.04135983 20.07392,5.09994979 19.90184,4.99906695 L19.90184,4.99906695 C19.73144,4.90295397 19.67328,4.68648117 19.7732,4.51627615 L22.25536,0.244853556 C22.35368,0.0755230126 22.5732,0.0153430962 22.74192,0.115430962 L22.74192,0.115430962 C22.914,0.212259414 22.97208,0.429686192 22.87384,0.598142259 L20.39,4.87115481 L20.39008,4.87123431 Z" id="Shape"></path>
                <path d="M31.99568,24.452523 C31.99568,25.6907029 30.98648,26.6960335 29.738,26.6960335 L29.738,26.6960335 C28.48952,26.6960335 27.47784,25.6914979 27.47784,24.452523 L27.47784,14.6341339 C27.47784,13.3934895 28.48872,12.3914184 29.738,12.3914184 L29.738,12.3914184 C30.98568,12.3914184 31.99568,13.393569 31.99568,14.6341339 L31.99568,24.452523 Z" id="Shape"></path>
                <path d="M4.51968,24.452523 C4.51968,25.6907029 3.5072,26.6960335 2.2628,26.6960335 L2.2628,26.6960335 C1.01352,26.6960335 0.00344,25.6914979 0.00344,24.452523 L0.00344,14.6341339 C0.00344,13.3934895 1.01264,12.3914184 2.2628,12.3914184 L2.2628,12.3914184 C3.5072,12.3914184 4.51968,13.393569 4.51968,14.6341339 L4.51968,24.452523 Z" id="Shape"></path>
                <path d="M14.35176,35.6889958 C14.35176,36.9271757 13.34088,37.9325063 12.0908,37.9325063 L12.0908,37.9325063 C10.8448,37.9325063 9.8356,36.9279707 9.8356,35.6889958 L9.8356,25.8706067 C9.8356,24.6332218 10.8448,23.6254268 12.0908,23.6254268 L12.0908,23.6254268 C13.34008,23.6254268 14.35176,24.6332218 14.35176,25.8706067 L14.35176,35.6889958 Z" id="Shape"></path>
                <path d="M22.18416,35.6889958 C22.18416,36.9271757 21.17328,37.9325063 19.924,37.9325063 L19.924,37.9325063 C18.678,37.9325063 17.66632,36.9279707 17.66632,35.6889958 L17.66632,25.8706067 C17.66632,24.6332218 18.6772,23.6254268 19.924,23.6254268 L19.924,23.6254268 C21.17248,23.6254268 22.18416,24.6332218 22.18416,25.8706067 L22.18416,35.6889958 Z" id="Shape"></path>
                <path d="M16.00656,2.35814644 C10.51464,2.35814644 5.99184,6.51151464 5.38728,11.8501172 L26.62504,11.8501172 C26.02216,6.51151464 21.50176,2.35822594 16.00656,2.35822594 L16.00656,2.35814644 Z M11.21504,8.11276151 C10.72512,8.11276151 10.32944,7.72123431 10.32944,7.23605858 C10.32944,6.7525523 10.72512,6.36094561 11.21504,6.36094561 C11.7,6.36094561 12.09568,6.7524728 12.09568,7.23605858 C12.09568,7.72123431 11.7,8.11276151 11.21504,8.11276151 Z M20.81688,8.11276151 C20.32864,8.11276151 19.93296,7.72123431 19.93296,7.23605858 C19.93296,6.7525523 20.32864,6.36094561 20.81688,6.36094561 C21.30672,6.36094561 21.6992,6.7524728 21.6992,7.23605858 C21.6992,7.72123431 21.3068,8.11276151 20.81688,8.11276151 Z" id="Shape"></path>
            </g>
        </g>
    </g>
</svg>

<svg width="32" height="38" viewBox="0 0 32 38" xmlns="http://www.w3.org/2000/svg"><title>android</title><g fill="#E3E3E3" fill-rule="evenodd"><path d="M26.03 28.933c0 .851-.69 1.541-1.549 1.541H6.55c-.856 0-1.549-.69-1.549-1.54V13.012c4.7-.017 15.666-.017 21.03 0v15.92zM12.134 4.686a.355.355 0 0 1-.155.478.36.36 0 0 1-.48-.154L9.233.62a.358.358 0 0 1 .636-.323l2.265 4.39zm8.256.185a.355.355 0 0 1-.488.128.35.35 0 0 1-.129-.483L22.255.245a.356.356 0 0 1 .487-.13.35.35 0 0 1 .132.483L20.39 4.871zm11.606 19.582a2.25 2.25 0 0 1-2.258 2.243 2.252 2.252 0 0 1-2.26-2.243v-9.819a2.25 2.25 0 0 1 2.26-2.243 2.248 2.248 0 0 1 2.258 2.243v9.819zm-27.476 0a2.252 2.252 0 0 1-2.257 2.243 2.25 2.25 0 0 1-2.26-2.243v-9.819a2.25 2.25 0 0 1 2.26-2.243 2.25 2.25 0 0 1 2.257 2.243v9.819z"/><path d="M14.352 35.689a2.252 2.252 0 0 1-2.261 2.244 2.25 2.25 0 0 1-2.255-2.244v-9.818a2.252 2.252 0 0 1 2.255-2.246 2.254 2.254 0 0 1 2.26 2.246v9.818zm7.832 0a2.252 2.252 0 0 1-2.26 2.244 2.251 2.251 0 0 1-2.258-2.244v-9.818a2.253 2.253 0 0 1 2.258-2.246 2.254 2.254 0 0 1 2.26 2.246v9.818zM16.007 2.358c-5.492 0-10.015 4.154-10.62 9.492h21.238c-.603-5.338-5.123-9.492-10.618-9.492zm-4.792 5.755a.88.88 0 0 1-.886-.877.88.88 0 0 1 .886-.875c.485 0 .88.391.88.875a.879.879 0 0 1-.88.877zm9.602 0a.88.88 0 0 1-.884-.877.88.88 0 0 1 .884-.875.877.877 0 1 1 0 1.752z"/></g></svg>
